client/src/assets/icon/cross.svg

<svg width="10" height="10" viewBox="0 0 10 10" fill="none" xmlns="http://www.w3.org/2000/svg">
<path d="M6.41401 5.00001L9.70701 1.70701C10.098 1.31601 10.098 0.684006 9.70701 0.293006C9.31601 -0.0979941 8.68401 -0.0979941 8.29301 0.293006L5.00001 3.58601L1.70701 0.293006C1.31601 -0.0979941 0.684006 -0.0979941 0.293006 0.293006C-0.0979941 0.684006 -0.0979941 1.31601 0.293006 1.70701L3.58601 5.00001L0.293006 8.29301C-0.0979941 8.68401 -0.0979941 9.31601 0.293006 9.70701C0.488006 9.90201 0.744006 10 1.00001 10C1.25601 10 1.51201 9.90201 1.70701 9.70701L5.00001 6.41401L8.29301 9.70701C8.48801 9.90201 8.74401 10 9.00001 10C9.25601 10 9.51201 9.90201 9.70701 9.70701C10.098 9.31601 10.098 8.68401 9.70701 8.29301L6.41401 5.00001Z" fill="#9087C0"/>
</svg>

<?xml version="1.0" encoding="utf-8"?>
<!-- Generator: Adobe Illustrator 22.0.0, SVG Export Plug-In . SVG Version: 6.00 Build 0)  -->
<svg version="1.1" id="Layer_1" xmlns="http://www.w3.org/2000/svg" xmlns:xlink="http://www.w3.org/1999/xlink" x="0px" y="0px"
	 viewBox="0 0 10 10" style="enable-background:new 0 0 10 10;" xml:space="preserve">
<style type="text/css">
	.st0{fill:#6040FF;}
</style>
<path class="st0" d="M6.4,5l3.3-3.3c0.4-0.4,0.4-1,0-1.4c-0.4-0.4-1-0.4-1.4,0L5,3.6L1.7,0.3c-0.4-0.4-1-0.4-1.4,0s-0.4,1,0,1.4
	L3.6,5L0.3,8.3c-0.4,0.4-0.4,1,0,1.4C0.5,9.9,0.7,10,1,10c0.3,0,0.5-0.1,0.7-0.3L5,6.4l3.3,3.3C8.5,9.9,8.7,10,9,10
	c0.3,0,0.5-0.1,0.7-0.3c0.4-0.4,0.4-1,0-1.4L6.4,5z"/>
</svg>
